X:1
T:Hunt is Up
M:6/8
L:1/8
K:D
 z4 z D| D2 E F2 A| d2 A F2 A| BBA G2 F| E3 z2 F| GGA B3/2 B/2 A| d/2 d3/2 =cB-A G|\
 A3/2 G/2 F E2 D| D3 z2 z|
